X:8661
T:Kiss the Maid behind the Barrel
M:C
L:1/8
K:G Major
DGG2 AGG2|DGG2 cAFA|DGG2 AGG2|defd cAFA:|!
dgg2 agg2|dgg2 agfe|dff2 aff2|defd cAFA|!
dgg2 agg2|dgg2 a2ga|bgaf gbag|fdcA dBcA|]!
G2dG BGdG|G2dG cAFA|G2dG BGBc|defd cAFA|!
G2dG BGdG|G2dG cAFA|GABA ABcA|defd cAFA|]!
B3G A3G|B3G cAFA|B3G ABcA|defd cAFA:|!
